images/favicon.svg

<svg width="120" height="120" viewBox="0 0 120 120" fill="none" xmlns:xlink="http://www.w3.org/1999/xlink&quot">
<g clip-path="url(#clip0_190_321)">
<path d="M53.0006 80.7812C50.9301 78.6885 44.9436 81.0512 37.9444 86.2491C38.2077 85.5961 38.3259 84.8937 38.291 84.1904C38.256 83.4872 38.0686 82.8 37.7418 82.1763C37.1184 81.8593 36.4345 81.6793 35.7358 81.6483C35.0371 81.6172 34.3399 81.7359 33.6908 81.9963C38.8896 74.9757 41.2527 69.0128 39.1597 66.9201C36.1664 63.9499 25.2062 70.0703 14.6511 80.6237C8.07461 87.5214 3.35849 95.9765 0.945234 105.196C3.35864 104.593 5.72138 103.803 8.01198 102.833C4.42118 108.08 1.71466 113.88 0 120.002C6.1212 118.282 11.9211 115.576 17.1717 111.991C16.2423 114.278 15.4899 116.632 14.9212 119.034C24.1192 116.627 32.5533 111.918 39.4298 105.353C49.8723 94.7998 55.9938 83.8189 53.0006 80.7812Z" fill="#FAB413"/>
<path d="M63.0157 70.813C60.9227 68.7428 54.9587 71.1055 47.9595 76.3034C48.2169 75.6491 48.332 74.9475 48.2971 74.2452C48.2622 73.5429 48.078 72.8562 47.7569 72.2306C47.1331 71.9039 46.4458 71.7165 45.7424 71.6816C45.0391 71.6466 44.3366 71.7648 43.6834 72.0281C48.8822 65.03 51.2453 59.0671 49.1748 56.9744C46.1815 53.9817 35.1988 60.1247 24.6437 70.678C18.0934 77.5616 13.3936 85.9919 10.9828 95.1824C13.3788 94.5607 15.7257 93.7635 18.0046 92.7972C14.4226 98.0676 11.7311 103.891 10.0376 110.034C16.1509 108.312 21.9431 105.606 27.1868 102.023C26.2132 104.296 25.401 106.634 24.7562 109.021C33.9529 106.598 42.385 101.883 49.2648 95.3174C59.8874 84.7866 66.0089 73.8057 63.0157 70.813Z" fill="#FCF200"/>
<path d="M85.1386 75.4935L53.3157 107.311L12.6707 66.6728L44.4935 34.8553C61.5528 17.7764 83.2706 8.93321 99.0245 4.41035C101.433 3.7128 103.683 3.10525 105.776 2.61021C110.461 1.45805 115.211 0.586433 120 0C119.096 7.14967 117.59 14.2103 115.499 21.1067C111.065 36.8354 102.198 58.4371 85.1386 75.4935Z" fill="white"/>
<path d="M85.1387 75.4935L53.3158 107.311L44.3136 98.3103C33.2859 83.3466 43.5934 52.5867 68.5971 27.5872C77.5977 18.3928 88.1105 10.8121 99.6773 5.17541C101.68 4.27534 103.706 3.37527 105.776 2.61021C110.461 1.45805 115.211 0.586433 120 0C119.096 7.14967 117.591 14.2103 115.499 21.1067C111.065 36.8354 102.198 58.4371 85.1387 75.4935Z" fill="#84B3C5"/>
<path d="M69.767 70.2507C67.7802 72.2344 65.2498 73.5847 62.4956 74.1309C59.7414 74.6771 56.8871 74.3948 54.2934 73.3195C51.6996 72.2443 49.4829 70.4244 47.9234 68.0899C46.3639 65.7554 45.5315 63.011 45.5315 60.2036C45.5315 57.3963 46.3639 54.6519 47.9234 52.3174C49.4829 49.9829 51.6996 48.163 54.2934 47.0877C56.8871 46.0125 59.7414 45.7301 62.4956 46.2764C65.2498 46.8226 67.7802 48.1729 69.767 50.1566C72.4236 52.8258 73.9149 56.4381 73.9149 60.2036C73.9149 63.9692 72.4236 67.5815 69.767 70.2507V70.2507Z" fill="#D5E5E6"/>
<path d="M47.9368 72.0732C45.5887 69.7256 43.9897 66.7346 43.3419 63.4783C42.6941 60.2221 43.0266 56.8469 44.2973 53.7796C45.568 50.7123 47.7199 48.0906 50.4809 46.2461C53.2418 44.4016 56.4879 43.4171 59.8085 43.4171C63.129 43.4171 66.375 44.4016 69.136 46.2461C71.897 48.0906 74.0489 50.7123 75.3196 53.7796C76.5903 56.8469 76.9228 60.2221 76.275 63.4783C75.6272 66.7346 74.0282 69.7256 71.6801 72.0732C68.5286 75.2157 64.2594 76.9805 59.8085 76.9805C55.3575 76.9805 51.0883 75.2157 47.9368 72.0732ZM68.0342 51.9791C66.4072 50.3517 64.334 49.2432 62.0768 48.794C59.8196 48.3447 57.4799 48.5748 55.3535 49.4552C53.2272 50.3356 51.4097 51.8266 50.131 53.7398C48.8523 55.6531 48.1697 57.9024 48.1697 60.2035C48.1697 62.5046 48.8523 64.754 50.131 66.6672C51.4097 68.5804 53.2272 70.0715 55.3535 70.9518C57.4799 71.8322 59.8196 72.0623 62.0768 71.6131C64.334 71.1638 66.4072 70.0554 68.0342 68.4279C70.2098 66.2435 71.4312 63.2863 71.4312 60.2035C71.4312 57.1208 70.2098 54.1636 68.0342 51.9791Z" fill="#C5453A"/>
<path d="M68.1691 64.5126C67.3752 65.3036 66.3646 65.8417 65.265 66.0589C64.1654 66.2761 63.026 66.1627 61.9909 65.7329C60.9557 65.3032 60.0711 64.5764 59.4488 63.6443C58.8265 62.7122 58.4944 61.6167 58.4944 60.496C58.4944 59.3753 58.8265 58.2798 59.4488 57.3477C60.0711 56.4157 60.9557 55.6888 61.9909 55.2591C63.026 54.8293 64.1654 54.7159 65.265 54.9331C66.3646 55.1503 67.3752 55.6884 68.1691 56.4794C68.6978 57.0063 69.1173 57.6322 69.4036 58.3215C69.6898 59.0107 69.8372 59.7497 69.8372 60.496C69.8372 61.2423 69.6898 61.9813 69.4036 62.6705C69.1173 63.3598 68.6978 63.9858 68.1691 64.5126V64.5126Z" fill="white"/>
<path d="M96.2789 39.6931C94.7028 41.2605 92.6976 42.3261 90.5165 42.7553C88.3353 43.1846 86.0758 42.9582 84.0232 42.1049C81.9705 41.2516 80.2166 39.8095 78.9828 37.9606C77.749 36.1117 77.0906 33.9389 77.0906 31.7162C77.0906 29.4936 77.749 27.3207 78.9828 25.4718C80.2166 23.6229 81.9705 22.1809 84.0232 21.3275C86.0758 20.4742 88.3353 20.2479 90.5165 20.6771C92.6976 21.1064 94.7028 22.1719 96.2789 23.7393C97.3302 24.7849 98.1645 26.0278 98.7338 27.3968C99.3031 28.7657 99.5961 30.2337 99.5961 31.7162C99.5961 33.1988 99.3031 34.6667 98.7338 36.0357C98.1645 37.4046 97.3302 38.6476 96.2789 39.6931V39.6931Z" fill="#D5E5E6"/>
<path d="M78.7695 41.1559C76.901 39.2906 75.628 36.913 75.1114 34.3241C74.5949 31.7352 74.858 29.0512 75.8675 26.6118C76.877 24.1724 78.5876 22.0873 80.7827 20.6202C82.9779 19.1531 85.5589 18.37 88.1993 18.37C90.8397 18.37 93.4208 19.1531 95.6159 20.6202C97.8111 22.0873 99.5216 24.1724 100.531 26.6118C101.541 29.0512 101.804 31.7352 101.287 34.3241C100.771 36.913 99.4976 39.2906 97.6291 41.1559C95.1269 43.654 91.7354 45.0571 88.1993 45.0571C84.6633 45.0571 81.2717 43.654 78.7695 41.1559V41.1559ZM94.7259 25.1797C93.434 23.8932 91.7898 23.0182 90.0009 22.6653C88.212 22.3123 86.3586 22.4972 84.6747 23.1966C82.9908 23.8959 81.5519 25.0784 80.5397 26.5948C79.5274 28.1111 78.9872 29.8934 78.9872 31.7164C78.9872 33.5395 79.5274 35.3217 80.5397 36.8381C81.5519 38.3545 82.9908 39.537 84.6747 40.2363C86.3586 40.9357 88.212 41.1206 90.0009 40.7676C91.7898 40.4147 93.434 39.5397 94.7259 38.2532C95.5926 37.402 96.2827 36.388 96.7565 35.2694C97.2303 34.1509 97.4785 32.9498 97.4869 31.7351C97.4952 30.5204 97.2636 29.3161 96.8052 28.1911C96.3469 27.0661 95.6709 26.0428 94.816 25.1797H94.7259Z" fill="#C5453A"/>
<path d="M94.9286 35.1479C94.2977 35.7736 93.4956 36.1985 92.6235 36.3692C91.7514 36.5399 90.8482 36.4486 90.0279 36.1069C89.2076 35.7652 88.5068 35.1883 88.0138 34.4491C87.5209 33.7098 87.2578 32.8411 87.2578 31.9526C87.2578 31.0641 87.5209 30.1955 88.0138 29.4562C88.5068 28.7169 89.2076 28.1401 90.0279 27.7984C90.8482 27.4567 91.7514 27.3654 92.6235 27.5361C93.4956 27.7067 94.2977 28.1317 94.9286 28.7574C95.3505 29.1757 95.6854 29.6735 95.9139 30.2219C96.1424 30.7703 96.26 31.3585 96.26 31.9526C96.26 32.5467 96.1424 33.135 95.9139 33.6834C95.6854 34.2318 95.3505 34.7295 94.9286 35.1479Z" fill="white"/>
<path d="M115.589 21.1067L99.0249 4.41035C101.433 3.71279 103.684 3.10525 105.777 2.61021C110.462 1.45805 115.211 0.586433 120 0C119.126 7.14705 117.65 14.2076 115.589 21.1067V21.1067Z" fill="#C5453A"/>
<path d="M48.2295 102.361C47.2973 103.289 46.0348 103.811 44.7187 103.811C43.4025 103.811 42.14 103.289 41.2078 102.361L16.2041 77.3836C15.2737 76.4477 14.7515 75.1817 14.7515 73.8621C14.7515 72.5425 15.2737 71.2765 16.2041 70.3406V70.3406C17.1402 69.4103 18.4064 68.8882 19.7262 68.8882C21.0461 68.8882 22.3123 69.4103 23.2484 70.3406L48.2295 95.3401C49.1586 96.2722 49.6802 97.5344 49.6802 98.8503C49.6802 100.166 49.1586 101.429 48.2295 102.361V102.361Z" fill="#B5C5C6"/>
<path d="M10.015 83.2117C9.36627 83.2637 8.71511 83.1475 8.12451 82.8742C7.77847 82.696 7.46008 82.4686 7.17927 82.1991C4.0735 79.0714 5.10876 69.7106 7.02173 65.8628L16.9692 45.6112C17.4627 44.6096 18.1491 43.7152 18.9891 42.9793C19.8291 42.2435 20.8061 41.6807 21.864 41.3232C22.922 40.9657 24.0402 40.8206 25.1544 40.8961C26.2686 40.9717 27.357 41.2664 28.357 41.7634C29.188 42.172 29.9478 42.7114 30.6076 43.361C31.843 44.6284 32.6606 46.2438 32.9503 47.9897C33.24 49.7356 32.9879 51.5284 32.228 53.1268L22.258 73.3784C20.4801 77.0012 14.3585 83.0317 10.015 83.2117Z" fill="#C5453A"/>
<path d="M34.7034 107.784C34.6409 108.44 34.7576 109.101 35.041 109.696C35.2195 110.035 35.447 110.346 35.7162 110.619C38.822 113.746 48.1843 112.689 52.0552 110.776L72.3103 100.83C74.3235 99.8293 75.8584 98.072 76.5796 95.9427C77.3007 93.8134 77.1494 91.4852 76.1587 89.4671C75.7482 88.6317 75.2004 87.8711 74.5383 87.2169C74.0355 86.7159 73.4678 86.2845 72.8504 85.9343C71.6425 85.2079 70.2708 84.7982 68.8623 84.7431C67.4539 84.688 66.0543 84.9894 64.7934 85.6192L44.5384 95.565C40.915 97.4327 34.9285 103.553 34.7034 107.784Z" fill="#C5453A"/>
<path d="M31.6204 98.3779H31.5079C28.7847 101.101 21.0878 104.746 18.3647 102.136C18.3647 102.136 18.1621 101.933 18.0721 101.798C15.8215 98.8729 19.1523 91.3798 21.6955 88.7471L34.3211 75.5836V75.4711C35.6108 74.2174 37.3386 73.5161 39.1373 73.5161C40.936 73.5161 42.6638 74.2174 43.9535 75.4711L44.1785 75.7186C45.4224 76.9814 46.1196 78.6828 46.1196 80.4552C46.1196 82.2276 45.4224 83.929 44.1785 85.1918L31.6204 98.3779Z" fill="#C5453A"/>
</g>
<defs>
<clipPath id="clip0_190_321">
<rect width="120" height="120" fill="white"/>
</clipPath>
</defs>
</svg>

<svg version="1.1" id="Слой_1" xmlns="http://www.w3.org/2000/svg" xmlns:xlink="http://www.w3.org/1999/xlink" x="0px" y="0px"
	 viewBox="0 0 120 120" style="enable-background:new 0 0 120 120;" xml:space="preserve">
<style type="text/css">
	.st0{clip-path:url(#SVGID_00000068676368042128660780000011235042375649285009_);}
	.st1{fill:#FAB413;}
	.st2{fill:#FCF200;}
	.st3{fill:#FFFFFF;}
	.st4{fill:#84B3C5;}
	.st5{fill:#D5E5E6;}
	.st6{fill:#C5453A;}
	.st7{fill:#B5C5C6;}
</style>
<g>
	<g>
		<defs>
			<rect id="SVGID_1_" width="120" height="120"/>
		</defs>
		<clipPath id="SVGID_00000128452673074535550110000016591839994100423815_">
			<use xlink:href="#SVGID_1_"  style="overflow:visible;"/>
		</clipPath>
		<g style="clip-path:url(#SVGID_00000128452673074535550110000016591839994100423815_);">
			<path class="st1" d="M53,80.8c-2.1-2.1-8.1,0.3-15.1,5.5c0.3-0.7,0.4-1.4,0.3-2.1c0-0.7-0.2-1.4-0.5-2c-0.6-0.3-1.3-0.5-2-0.5
				s-1.4,0.1-2,0.3c5.2-7,7.6-13,5.5-15.1c-3-3-14,3.2-24.5,13.7C8.1,87.5,3.4,96,0.9,105.2c2.4-0.6,4.8-1.4,7.1-2.4
				c-3.6,5.2-6.3,11-8,17.2c6.1-1.7,11.9-4.4,17.2-8c-0.9,2.3-1.7,4.6-2.3,7c9.2-2.4,17.6-7.1,24.5-13.7C49.9,94.8,56,83.8,53,80.8z
				"/>
			<path class="st2" d="M63,70.8c-2.1-2.1-8.1,0.3-15.1,5.5c0.3-0.7,0.4-1.4,0.3-2.1s-0.2-1.4-0.5-2c-0.6-0.3-1.3-0.5-2-0.5
				s-1.4,0.1-2.1,0.3c5.2-7,7.6-13,5.5-15.1c-3-3-14,3.2-24.5,13.7C18.1,77.6,13.4,86,11,95.2c2.4-0.6,4.7-1.4,7-2.4
				c-3.6,5.3-6.3,11.1-8,17.2c6.1-1.7,11.9-4.4,17.1-8c-1,2.3-1.8,4.6-2.4,7c9.2-2.4,17.6-7.1,24.5-13.7C59.9,84.8,66,73.8,63,70.8z
				"/>
			<path class="st3" d="M85.1,75.5l-31.8,31.8L12.7,66.7l31.8-31.8C61.6,17.8,83.3,8.9,99,4.4c2.4-0.7,4.7-1.3,6.8-1.8
				c4.7-1.2,9.4-2,14.2-2.6c-0.9,7.1-2.4,14.2-4.5,21.1C111.1,36.8,102.2,58.4,85.1,75.5z"/>
			<path class="st4" d="M85.1,75.5l-31.8,31.8l-9-9c-11-15-0.7-45.7,24.3-70.7c9-9.2,19.5-16.8,31.1-22.4c2-0.9,4-1.8,6.1-2.6
				c4.7-1.2,9.4-2,14.2-2.6c-0.9,7.1-2.4,14.2-4.5,21.1C111.1,36.8,102.2,58.4,85.1,75.5z"/>
			<path class="st5" d="M69.8,70.3c-2,2-4.5,3.3-7.3,3.9c-2.8,0.5-5.6,0.3-8.2-0.8c-2.6-1.1-4.8-2.9-6.4-5.2
				c-1.6-2.3-2.4-5.1-2.4-7.9c0-2.8,0.8-5.6,2.4-7.9c1.6-2.3,3.8-4.2,6.4-5.2c2.6-1.1,5.4-1.4,8.2-0.8c2.8,0.5,5.3,1.9,7.3,3.9
				c2.7,2.7,4.1,6.3,4.1,10C73.9,64,72.4,67.6,69.8,70.3L69.8,70.3z"/>
			<path class="st6" d="M47.9,72.1c-2.3-2.3-3.9-5.3-4.6-8.6c-0.6-3.3-0.3-6.6,1-9.7c1.3-3.1,3.4-5.7,6.2-7.5s6-2.8,9.3-2.8
				s6.6,1,9.3,2.8c2.8,1.8,4.9,4.5,6.2,7.5c1.3,3.1,1.6,6.4,1,9.7c-0.6,3.3-2.2,6.2-4.6,8.6c-3.2,3.1-7.4,4.9-11.9,4.9
				C55.4,77,51.1,75.2,47.9,72.1z M68,52c-1.6-1.6-3.7-2.7-6-3.2c-2.3-0.4-4.6-0.2-6.7,0.7c-2.1,0.9-3.9,2.4-5.2,4.3
				c-1.3,1.9-2,4.2-2,6.5s0.7,4.6,2,6.5s3.1,3.4,5.2,4.3c2.1,0.9,4.5,1.1,6.7,0.7c2.3-0.4,4.3-1.6,6-3.2c2.2-2.2,3.4-5.1,3.4-8.2
				C71.4,57.1,70.2,54.2,68,52z"/>
			<path class="st3" d="M68.2,64.5c-0.8,0.8-1.8,1.3-2.9,1.5S63,66.2,62,65.7c-1-0.4-1.9-1.2-2.5-2.1s-1-2-1-3.1s0.3-2.2,1-3.1
				c0.6-0.9,1.5-1.7,2.5-2.1c1-0.4,2.2-0.5,3.3-0.3c1.1,0.2,2.1,0.8,2.9,1.5c0.5,0.5,0.9,1.2,1.2,1.8c0.3,0.7,0.4,1.4,0.4,2.2
				s-0.1,1.5-0.4,2.2C69.1,63.4,68.7,64,68.2,64.5L68.2,64.5z"/>
			<path class="st5" d="M96.3,39.7c-1.6,1.6-3.6,2.6-5.8,3.1c-2.2,0.4-4.4,0.2-6.5-0.7s-3.8-2.3-5-4.1s-1.9-4-1.9-6.2
				s0.7-4.4,1.9-6.2c1.2-1.8,3-3.3,5-4.1c2.1-0.9,4.3-1.1,6.5-0.7s4.2,1.5,5.8,3.1c1.1,1,1.9,2.3,2.5,3.7c0.6,1.4,0.9,2.8,0.9,4.3
				s-0.3,3-0.9,4.3C98.2,37.4,97.3,38.6,96.3,39.7L96.3,39.7z"/>
			<path class="st6" d="M78.8,41.2c-1.9-1.9-3.1-4.2-3.7-6.8c-0.5-2.6-0.3-5.3,0.8-7.7s2.7-4.5,4.9-6c2.2-1.5,4.8-2.3,7.4-2.3
				s5.2,0.8,7.4,2.3c2.2,1.5,3.9,3.6,4.9,6s1.3,5.1,0.8,7.7s-1.8,5-3.7,6.8c-2.5,2.5-5.9,3.9-9.4,3.9C84.7,45.1,81.3,43.7,78.8,41.2
				L78.8,41.2z M94.7,25.2c-1.3-1.3-2.9-2.2-4.7-2.5c-1.8-0.4-3.6-0.2-5.3,0.5c-1.7,0.7-3.1,1.9-4.1,3.4S79,29.9,79,31.7
				c0,1.8,0.5,3.6,1.6,5.1c1,1.5,2.5,2.7,4.1,3.4c1.7,0.7,3.5,0.9,5.3,0.5s3.4-1.2,4.7-2.5c0.9-0.9,1.6-1.9,2-3
				c0.5-1.1,0.7-2.3,0.7-3.5s-0.2-2.4-0.7-3.5C96.3,27.1,95.7,26,94.7,25.2L94.7,25.2z"/>
			<path class="st3" d="M94.9,35.1c-0.6,0.6-1.4,1.1-2.3,1.2c-0.9,0.2-1.8,0.1-2.6-0.3c-0.8-0.3-1.5-0.9-2-1.7
				c-0.5-0.7-0.8-1.6-0.8-2.5c0-0.9,0.3-1.8,0.8-2.5s1.2-1.3,2-1.7c0.8-0.3,1.7-0.4,2.6-0.3c0.9,0.2,1.7,0.6,2.3,1.2
				c0.4,0.4,0.8,0.9,1,1.5c0.2,0.5,0.3,1.1,0.3,1.7c0,0.6-0.1,1.2-0.3,1.7S95.4,34.7,94.9,35.1z"/>
			<path class="st6" d="M115.6,21.1L99,4.4c2.4-0.7,4.7-1.3,6.8-1.8c4.7-1.2,9.4-2,14.2-2.6C119.1,7.1,117.7,14.2,115.6,21.1
				L115.6,21.1z"/>
			<path class="st7" d="M48.2,102.4c-0.9,0.9-2.2,1.4-3.5,1.4s-2.6-0.5-3.5-1.4l-25-25c-0.9-0.9-1.5-2.2-1.5-3.5s0.5-2.6,1.5-3.5
				l0,0c0.9-0.9,2.2-1.5,3.5-1.5s2.6,0.5,3.5,1.5l25,25c0.9,0.9,1.5,2.2,1.5,3.5C49.7,100.2,49.2,101.4,48.2,102.4L48.2,102.4z"/>
			<path class="st6" d="M10,83.2c-0.6,0.1-1.3-0.1-1.9-0.3c-0.3-0.2-0.7-0.4-0.9-0.7C4.1,79.1,5.1,69.7,7,65.9l10-20.3
				c0.5-1,1.2-1.9,2-2.6c0.8-0.7,1.8-1.3,2.9-1.7s2.2-0.5,3.3-0.4c1.1,0.1,2.2,0.4,3.2,0.9c0.8,0.4,1.6,0.9,2.3,1.6
				c1.2,1.3,2.1,2.9,2.3,4.6c0.3,1.7,0,3.5-0.7,5.1l-10,20.3C20.5,77,14.4,83,10,83.2z"/>
			<path class="st6" d="M34.7,107.8c-0.1,0.7,0.1,1.3,0.3,1.9c0.2,0.3,0.4,0.7,0.7,0.9c3.1,3.1,12.5,2.1,16.3,0.2l20.3-9.9
				c2-1,3.5-2.8,4.3-4.9c0.7-2.1,0.6-4.5-0.4-6.5c-0.4-0.8-1-1.6-1.6-2.3c-0.5-0.5-1.1-0.9-1.7-1.3c-1.2-0.7-2.6-1.1-4-1.2
				s-2.8,0.2-4.1,0.9l-20.3,9.9C40.9,97.4,34.9,103.6,34.7,107.8z"/>
			<path class="st6" d="M31.6,98.4h-0.1c-2.7,2.7-10.4,6.4-13.1,3.8c0,0-0.2-0.2-0.3-0.3c-2.3-2.9,1.1-10.4,3.6-13.1l12.6-13.2v-0.1
				c1.3-1.3,3-2,4.8-2s3.5,0.7,4.8,2l0.2,0.2c1.2,1.3,1.9,3,1.9,4.7s-0.7,3.5-1.9,4.7L31.6,98.4z"/>
		</g>
	</g>
</g>
</svg>
